public/icon/svg/Wallos.svg

<?xml version="1.0" encoding="UTF-8"?>
<svg width="1025px" height="1024px" viewBox="0 0 1025 1024" version="1.1" xmlns="http://www.w3.org/2000/svg" xmlns:xlink="http://www.w3.org/1999/xlink">
    <title>Wallos</title>
    <g id="ICON-新版方图标" stroke="none" stroke-width="1" fill="none" fill-rule="evenodd">
        <g id="Wallos" transform="translate(0.2604, -0.0008)">
            <rect id="蒙版路径" fill="#FFFFFF" x="0" y="0" width="1024" height="1024"></rect>
            <g id="轨迹" transform="translate(150.7982, 145.26)">
                <path d="M463.984627,81.3040521 C613.677791,361.326841 678.277354,492.893682 713.932765,570.147682 C744.96117,678.869633 660.293036,733.353656 591.720393,733.875944 C396.012151,733.875944 239.828027,732.206678 138.266874,733.163752 C22.1180874,732.862399 -22.1927667,651.562801 10.4177698,556.015513 C83.0544631,408.919386 182.055187,202.639802 244.657658,81.3040521 C309.186522,-32.1948767 399.435412,-21.885337 463.984627,81.3040521 Z" id="三角形" fill="#8FBFFA"></path>
                <path d="M650.577861,733.491077 C693.553914,712.561651 723.168586,668.462055 723.168586,617.445582 C723.168586,546.20085 665.413319,488.445582 594.168586,488.445582 C522.923854,488.445582 465.168586,546.20085 465.168586,617.445582 C465.168586,668.353725 494.657622,712.374334 537.485721,733.357437 C600.24789,734.043813 607.404572,734.019307 650.577861,733.491077 Z" id="椭圆形" fill="#2859C5"></path>
                <circle id="椭圆形" fill="#FFFFFF" cx="360.624067" cy="476.293718" r="143.442452"></circle>
            </g>
        </g>
    </g>
</svg>

<svg xmlns="http://www.w3.org/2000/svg" width="1025" height="1024"><g fill="none" fill-rule="evenodd"><path fill="#FFF" d="M.26 0h1024v1024H.26z"/><g transform="translate(151.059 145.26)"><path fill="#8FBFFA" d="M463.985 81.304c149.693 280.023 214.292 411.59 249.948 488.844 31.028 108.722-53.64 163.206-122.213 163.728-195.708 0-351.892-1.67-453.453-.712-116.149-.302-160.46-81.601-127.85-177.148C83.055 408.919 182.056 202.64 244.658 81.304c64.53-113.499 154.778-103.19 219.328 0"/><path fill="#2859C5" d="M650.578 733.491c42.976-20.93 72.59-65.029 72.59-116.045 0-71.245-57.755-129-129-129-71.244 0-129 57.755-129 129 0 50.908 29.49 94.928 72.318 115.911 62.762.687 69.919.662 113.092.134"/><circle cx="360.624" cy="476.294" r="143.442" fill="#FFF"/></g></g></svg>
